X:1
T:Title
%%score { ( 1 3 ) | ( 2 4 ) }
L:1/8
M:6/8
K:A
V:1 treble nm="Grand Piano"
V:3 treble 
V:2 bass 
V:4 bass 
V:1
 z3 z2[Q:1/4=87] [CE] | z3 .c3 | [DF]2 [DB] [Dd][Ec][FB] | AGA c2 B |[M:5/8] [CA]-[CA]- [CA]3 | %5
[M:1/8] [CE] |[M:3/4] z2 z c z2 | [DF]2 [DB][Dd] [Ec][FB] | AG A c2 B |[M:5/8] [CA]-[CA]- [CA]3 | %10
[M:1/8] [EA] |[M:3/4] [GB]2 [Ge] [Ge]2 [GB] | c2 d c2 [^Ec] | z2 z B z2 |[M:5/8] [CE]-[CE]- [CE]3 | %15
[M:1/8] [CE] |[M:3/4] z2 z c z2 | [DF]2 [DB][Dd] [Ec][FB] | AG A c2 B |[M:5/8] [CA]-[CA]- [CA]3 |] %20
V:2
 z3 z2 [A,,A,] | [A,,A,]2 [A,,A,] [A,,A,][B,,G,][C,A,] | [D,A,]2 [D,F,] [B,,B,][C,A,][D,D] | %3
 .C3 z3 |[M:5/8] [A,,A,]-[A,,A,]- [A,,A,]3 |[M:1/8] [A,,A,] | %6
[M:3/4] [A,,A,]2 [A,,A,][A,,A,] [B,,G,][C,A,] | [D,A,]2 [D,F,][B,,B,] [C,A,][D,D] | .C2 z2 z2 | %9
[M:5/8] [A,,A,]-[A,,A,]- [A,,A,]3 |[M:1/8] [A,C] |[M:3/4] [E,E]2 [E,B,] [E,B,]2 [E,B,] | %12
 [A,E]2 [G,B,E] [A,E]2 [C,G,] | [C,G,]2 .C,2 AD, |[M:5/8] [A,,A,]-[A,,A,]- [A,,A,]3 | %15
[M:1/8] [A,,A,] |[M:3/4] [A,,A,]2 [A,,A,][A,,A,] [B,,G,][C,A,] | %17
 [D,A,]2 [D,F,][B,,B,] [C,A,][D,B,] | CB, [E,CE] [E,A,E]2 [E,G,D] | %19
[M:5/8] [A,,A,]-[A,,A,]- [A,,A,]3 |] %20
V:3
 x6 | [CE]2 [CA] E-[EB][EA] | x6 | x6 |[M:5/8] x5 |[M:1/8] x |[M:3/4] [CE]2 [CA]E- [EB][EA] | x6 | %8
 x6 |[M:5/8] x5 |[M:1/8] x |[M:3/4] x6 | x6 | [Ec]2 [EA] [DF]2 [A,DF] |[M:5/8] x5 |[M:1/8] x | %16
[M:3/4] [CE]2 [CA]E- [EB][EA] | x6 | x6 |[M:5/8] x5 |] %20
V:4
 x6 | x6 | x6 | [E,E]-[E,B,E][E,CE] [E,A,E]2 [E,G,D] |[M:5/8] x5 |[M:1/8] x |[M:3/4] x6 | x6 | %8
 [E,E]-[E,B,E] [E,CE] [E,A,E]2 [E,G,D] |[M:5/8] x5 |[M:1/8] x |[M:3/4] x6 | x6 | z2 z .D,3 | %14
[M:5/8] x5 |[M:1/8] x |[M:3/4] x6 | x6 | [E,E]2 z2 z2 |[M:5/8] x5 |] %20

